X:1
T: The House of Invercauld
C:Alexander Walker
R:Reel
Q: 232
K:E
M:4/4
L:1/8
|:c|BG FE c2 ce|BG FE FC CA|BG FE ef gf|ec BA GE Ec|
BG FE c2 ce|BG FE FC CA|BG FE ef gf|ec BA GE EB|
eg fg eB ec|BE GE FC CB|eg fg ec BG|Bc ef ge eB|
eg fg eB ec|BE GF EC CE|B,E GE AB cd|ec BA GE E:|
